icons/1_Primary/IONOS.svg

<svg xmlns="http://www.w3.org/2000/svg" width="1024" height="1024" fill="none">
   <g clip-path="url(#a)">
      <path fill="#54688C" d="M512 1024c282.77 0 512-229.23 512-512S794.77 0 512 0 0 229.23 0 512s229.23 512 512 512Z"/>
      <path fill="#fff" d="M764 598.59a43.663 43.663 0 0 1-8.75-.89 45.347 45.347 0 0 1-17.215-7.515 45.344 45.344 0 0 1-12.695-13.845l-.16-.3a13.437 13.437 0 0 1 4.95-17.72 12.999 12.999 0 0 1 6.65-1.84 13.204 13.204 0 0 1 11.47 6.73c.13.24.28.49.44.74l1.4 1.9 1.87 1.89a18.294 18.294 0 0 0 8.55 4.13 18.795 18.795 0 0 0 14.73-3.37 17.82 17.82 0 0 0 7.4-13.33 18.427 18.427 0 0 0-5.12-14.3c-3.68-3.81-39.58-41.11-41.36-43a48.538 48.538 0 0 1-4.77-5.67c-5.59-7.92-7.33-17.25-6.47-26.49a43.003 43.003 0 0 1 5.57-18.31c3.21-5.61 1.81-3.07 2.35-3.85a49.975 49.975 0 0 1 9.05-9.22 46.452 46.452 0 0 1 7.59-4.56 43.47 43.47 0 0 1 56.46 17.43 12.823 12.823 0 0 1 1.37 9.95 13.101 13.101 0 0 1-6.25 8.08 12.574 12.574 0 0 1-6.41 1.74 13.096 13.096 0 0 1-11.39-6.7 17.197 17.197 0 0 0-11.52-8.14 17.85 17.85 0 0 0-14 3.14 17 17 0 0 0-6.61 12.32 17.335 17.335 0 0 0 4.73 13.41l40.47 41.73a44.822 44.822 0 0 1 8.91 48.62A44.816 44.816 0 0 1 764 598.6m-128.08 0a43.777 43.777 0 0 0 43.52-43.53V469a43.52 43.52 0 0 0-87 0v86a43.782 43.782 0 0 0 43.53 43.53m0-146.86A17.473 17.473 0 0 1 653.16 469v86a17.35 17.35 0 0 1-17.24 17.25h-.19a17.14 17.14 0 0 1-17.06-17.06V469a17.35 17.35 0 0 1 17.25-17.24m-195.47 8v125.67a13.15 13.15 0 0 0 3.849 9.292 13.126 13.126 0 0 0 9.291 3.848 13.142 13.142 0 0 0 13.14-13.14v-71.2l-26.28-54.47Zm71.28 50.13v-71.32a13.14 13.14 0 1 1 26.28 0v125.79l-26.28-54.47Zm26.06 72.77v2.81a13.187 13.187 0 0 1-10.102 12.792 13.195 13.195 0 0 1-14.818-6.792l-72.26-149.8v-3a13.16 13.16 0 0 1 25-5.68l72.18 149.67Zm-195.68 16A43.788 43.788 0 0 0 385.63 555v-86a43.52 43.52 0 0 0-87 0v86a43.788 43.788 0 0 0 43.53 43.53m0-146.86A17.582 17.582 0 0 1 359.35 469v86.13a17.247 17.247 0 0 1-17.245 16.835 17.249 17.249 0 0 1-17.245-16.835V469a17.35 17.35 0 0 1 17.25-17.24M215 584v.09a14.33 14.33 0 1 0 28.66 0V439.74a14.332 14.332 0 0 0-24.463-10.133A14.334 14.334 0 0 0 215 439.74V584Z"/>
   </g>
   <defs>
      <clipPath id="a">
         <path fill="#fff" d="M0 0h1024v1024H0z"/>
      </clipPath>
   </defs>
</svg>

<svg width="1024" height="1024" viewBox="0 0 1024 1024" fill="none" xmlns="http://www.w3.org/2000/svg">
<g clip-path="url(#clip0_2_2538)">
<path d="M512 1024C794.77 1024 1024 794.77 1024 512C1024 229.23 794.77 0 512 0C229.23 0 0 229.23 0 512C0 794.77 229.23 1024 512 1024Z" fill="#54688C"/>
<path d="M764 598.59C761.061 598.589 758.129 598.29 755.25 597.7C749.05 596.424 743.186 593.864 738.035 590.185C732.883 586.507 728.559 581.79 725.34 576.34L725.18 576.04C723.597 573.011 723.228 569.492 724.148 566.2C725.067 562.909 727.206 560.091 730.13 558.32C732.14 557.119 734.438 556.483 736.78 556.48C739.116 556.487 741.409 557.114 743.424 558.297C745.439 559.479 747.104 561.174 748.25 563.21C748.38 563.45 748.53 563.7 748.69 563.95L750.09 565.85L751.96 567.74C754.397 569.845 757.346 571.27 760.51 571.87C763.065 572.358 765.693 572.31 768.228 571.73C770.764 571.15 773.151 570.05 775.24 568.5C777.383 566.964 779.158 564.972 780.438 562.667C781.717 560.361 782.469 557.801 782.64 555.17C782.852 552.56 782.505 549.934 781.623 547.468C780.74 545.002 779.341 542.753 777.52 540.87C773.84 537.06 737.94 499.76 736.16 497.87C734.428 496.104 732.833 494.209 731.39 492.2C725.8 484.28 724.06 474.95 724.92 465.71C725.378 459.266 727.281 453.008 730.49 447.4C733.7 441.79 732.3 444.33 732.84 443.55C735.445 440.098 738.487 436.999 741.89 434.33C744.269 432.572 746.81 431.045 749.48 429.77C759.355 425.026 770.658 424.185 781.127 427.417C791.595 430.649 800.458 437.715 805.94 447.2C806.826 448.681 807.405 450.326 807.64 452.035C807.875 453.745 807.763 455.485 807.31 457.15C806.862 458.847 806.078 460.436 805.004 461.824C803.931 463.212 802.589 464.37 801.06 465.23C799.118 466.374 796.904 466.975 794.65 466.97C792.328 466.964 790.049 466.34 788.047 465.163C786.046 463.986 784.394 462.297 783.26 460.27C782.024 458.176 780.359 456.368 778.373 454.965C776.387 453.562 774.126 452.596 771.74 452.13C769.316 451.657 766.82 451.691 764.411 452.232C762.001 452.772 759.729 453.807 757.74 455.27C755.828 456.738 754.249 458.595 753.11 460.719C751.97 462.843 751.295 465.185 751.13 467.59C750.925 470.033 751.241 472.491 752.056 474.803C752.872 477.114 754.168 479.227 755.86 481L796.33 522.73C802.419 529.068 806.509 537.056 808.094 545.701C809.678 554.346 808.685 563.265 805.24 571.35C801.795 579.435 796.049 586.329 788.716 591.174C781.384 596.019 772.789 598.602 764 598.6M635.92 598.6C647.443 598.532 658.474 593.924 666.621 585.775C674.769 577.626 679.374 566.593 679.44 555.07V469C679.097 457.692 674.364 446.961 666.243 439.083C658.123 431.205 647.254 426.799 635.94 426.799C624.626 426.799 613.757 431.205 605.637 439.083C597.516 446.961 592.783 457.692 592.44 469V555C592.506 566.525 597.113 577.559 605.262 585.708C613.411 593.857 624.445 598.465 635.97 598.53M635.97 451.67C640.53 451.743 644.882 453.597 648.094 456.835C651.306 460.073 653.124 464.439 653.16 469V555C653.134 559.565 651.309 563.936 648.082 567.165C644.855 570.394 640.485 572.221 635.92 572.25H635.73C631.212 572.229 626.885 570.425 623.69 567.23C620.495 564.035 618.691 559.708 618.67 555.19V469C618.699 464.435 620.526 460.065 623.755 456.838C626.984 453.611 631.355 451.786 635.92 451.76M440.45 459.76V585.43C440.45 587.156 440.79 588.864 441.45 590.459C442.111 592.053 443.078 593.501 444.299 594.722C445.519 595.942 446.967 596.91 448.562 597.57C450.156 598.23 451.864 598.57 453.59 598.57C455.316 598.57 457.024 598.23 458.618 597.57C460.213 596.91 461.661 595.942 462.881 594.722C464.102 593.501 465.069 592.053 465.73 590.459C466.39 588.864 466.73 587.156 466.73 585.43V514.23L440.45 459.76ZM511.73 509.89V438.57C511.73 435.085 513.114 431.743 515.579 429.279C518.043 426.815 521.385 425.43 524.87 425.43C528.355 425.43 531.697 426.815 534.161 429.279C536.626 431.743 538.01 435.085 538.01 438.57V564.36L511.73 509.89ZM537.79 582.66V585.47C537.783 588.426 536.783 591.294 534.951 593.613C533.119 595.933 530.561 597.57 527.688 598.262C524.814 598.954 521.791 598.66 519.104 597.429C516.417 596.197 514.222 594.099 512.87 591.47L440.61 441.67V438.67C440.624 435.698 441.645 432.818 443.505 430.499C445.365 428.181 447.956 426.56 450.854 425.901C453.753 425.243 456.789 425.585 459.468 426.872C462.148 428.159 464.312 430.316 465.61 432.99L537.79 582.66ZM342.11 598.66C353.654 598.589 364.704 593.962 372.854 585.785C381.004 577.609 385.596 566.545 385.63 555V469C385.287 457.692 380.554 446.961 372.433 439.083C364.313 431.205 353.444 426.799 342.13 426.799C330.816 426.799 319.947 431.205 311.827 439.083C303.706 446.961 298.973 457.692 298.63 469V555C298.698 566.524 303.306 577.556 311.455 585.705C319.604 593.854 330.636 598.462 342.16 598.53M342.16 451.67C346.712 451.771 351.047 453.633 354.253 456.865C357.459 460.098 359.286 464.448 359.35 469V555.13C359.242 559.632 357.377 563.913 354.155 567.058C350.933 570.204 346.608 571.965 342.105 571.965C337.602 571.965 333.277 570.204 330.055 567.058C326.833 563.913 324.968 559.632 324.86 555.13V469C324.889 464.435 326.716 460.065 329.945 456.838C333.174 453.611 337.545 451.786 342.11 451.76M215 584V584.09C215 587.891 216.51 591.536 219.197 594.223C221.885 596.91 225.529 598.42 229.33 598.42C233.131 598.42 236.775 596.91 239.463 594.223C242.15 591.536 243.66 587.891 243.66 584.09V439.74C243.66 435.94 242.15 432.295 239.463 429.607C236.775 426.92 233.131 425.41 229.33 425.41C225.529 425.41 221.885 426.92 219.197 429.607C216.51 432.295 215 435.94 215 439.74V584Z" fill="white"/>
</g>
<defs>
<clipPath id="clip0_2_2538">
<rect width="1024" height="1024" fill="white"/>
</clipPath>
</defs>
</svg>
